icons/law.svg

<svg xmlns="http://www.w3.org/2000/svg" viewBox="0 0 24 24"><path fill="#42a5f5" d="M12 3c-1.27 0-2.4.8-2.82 2H3v2h1.95L2 14c-.47 2 1 3 3.5 3s4.06-1 3.5-3L6.05 7h3.12c.33.85.98 1.5 1.83 1.83V20H2v2h20v-2h-9V8.82c.85-.32 1.5-.97 1.82-1.82h3.13L15 14c-.47 2 1 3 3.5 3s4.06-1 3.5-3l-2.95-7H21V5h-6.17C14.4 3.8 13.27 3 12 3m0 2a1 1 0 0 1 1 1 1 1 0 0 1-1 1 1 1 0 0 1-1-1 1 1 0 0 1 1-1m-6.5 5.25L7 14H4zm13 0L20 14h-3z"/></svg>

<svg xmlns="http://www.w3.org/2000/svg" viewBox="0 0 24 24" width="16px" height="16px">
    <path fill="#42A5F5"
          d="M12,3C10.73,3 9.6,3.8 9.18,5H3V7H4.95L2,14C1.53,16 3,17 5.5,17C8,17 9.56,16 9,14L6.05,7H9.17C9.5,7.85 10.15,8.5 11,8.83V20H2V22H22V20H13V8.82C13.85,8.5 14.5,7.85 14.82,7H17.95L15,14C14.53,16 16,17 18.5,17C21,17 22.56,16 22,14L19.05,7H21V5H14.83C14.4,3.8 13.27,3 12,3M12,5A1,1 0 0,1 13,6A1,1 0 0,1 12,7A1,1 0 0,1 11,6A1,1 0 0,1 12,5M5.5,10.25L7,14H4L5.5,10.25M18.5,10.25L20,14H17L18.5,10.25Z" />
</svg>
